icons/ollama-light.svg

<svg width="256" height="256" viewBox="0 0 256 256" fill="none" xmlns="http://www.w3.org/2000/svg">
<rect width="256" height="256" rx="60" fill="#F4F2ED" />
<path d="M88.4769 36.052C86.7498 36.3308 84.6774 37.2338 83.216 38.3493C78.7922 41.709 75.3646 48.8401 73.9165 57.7241C73.3719 61.0837 72.9999 65.7449 72.9999 69.3039C72.9999 73.5002 73.4914 78.865 74.1956 82.57C74.355 83.3934 74.4347 84.1238 74.3683 84.1769C74.3151 84.23 73.6641 84.7611 72.9335 85.3454C70.4359 87.3373 67.5796 90.4049 65.6134 93.207C61.8404 98.5586 59.396 104.641 58.373 111.227C57.9745 113.83 57.8682 119.089 58.1871 121.691C58.8912 127.694 60.6979 132.766 63.7933 137.414L64.803 138.915L64.5107 139.406C62.4383 142.886 60.6714 147.918 59.8477 152.752C59.1967 156.577 59.117 157.599 59.117 162.725C59.117 167.891 59.1834 168.913 59.7945 172.486C60.5252 176.762 62.0131 181.29 63.6738 184.304C64.2185 185.287 65.547 187.332 65.7064 187.438C65.7595 187.465 65.6001 187.956 65.3477 188.527C63.4346 192.71 61.8006 198.274 61.123 202.962C60.6448 206.176 60.5784 207.211 60.5784 210.598C60.5784 214.913 60.8175 217.012 61.7209 220.451L61.8537 220.956H67.5397H73.239L72.867 220.252C70.5687 216.002 70.3562 208.114 72.3356 200.24C73.239 196.601 74.262 193.932 76.175 190.253L77.3175 188.023V186.655C77.3175 185.38 77.291 185.234 76.8791 184.397C76.5603 183.76 76.1352 183.215 75.3779 182.472C74.0893 181.223 73.1593 179.909 72.4153 178.289C69.1472 171.197 68.5095 160.667 70.8079 151.69C71.7644 147.945 73.3453 144.612 75.0059 142.793C76.1352 141.544 76.7197 140.15 76.7197 138.703C76.7197 137.202 76.1883 135.967 74.9926 134.679C71.5651 131.014 69.4528 126.552 68.6955 121.36C67.6194 113.963 69.5723 105.902 74.0095 99.5148C78.3538 93.2467 84.4515 89.223 91.2669 88.1475C92.7946 87.8951 95.6509 87.935 97.2451 88.2272C98.9855 88.5326 100.075 88.4395 101.191 87.9083C102.572 87.2578 103.263 86.4476 104.074 84.5885C104.791 82.9287 105.349 82.0256 106.85 80.1533C108.657 77.909 110.397 76.3818 113.187 74.5359C116.376 72.4511 120.002 70.9373 123.616 70.2068C124.931 69.9412 125.542 69.9014 128 69.9014C130.458 69.9014 131.069 69.9412 132.384 70.2068C137.685 71.2826 142.946 74.0182 147.144 77.8956C148.047 78.7322 150.213 81.4147 150.903 82.5303C151.169 82.9683 151.634 83.8981 151.926 84.5885C152.737 86.4476 153.428 87.2578 154.809 87.9083C155.885 88.4263 157.014 88.5326 158.688 88.2536C161.332 87.8022 163.365 87.842 165.955 88.3732C174.777 90.1526 182.455 97.4165 185.856 107.15C188.819 115.689 187.982 124.626 183.571 131.452C182.827 132.607 182.083 133.537 181.007 134.679C178.682 137.162 178.682 140.243 180.994 142.793C184.794 146.949 187.172 157.174 186.454 166.191C185.976 172.14 184.448 177.465 182.349 180.48C181.977 181.011 181.207 181.914 180.622 182.472C179.865 183.215 179.44 183.76 179.121 184.397C178.709 185.234 178.682 185.38 178.682 186.655V188.023L179.825 190.253C181.738 193.932 182.761 196.601 183.664 200.24C185.617 208.008 185.445 215.737 183.213 220.132C183.027 220.504 182.867 220.849 182.867 220.889C182.867 220.929 185.405 220.956 188.513 220.956H194.146L194.292 220.385C194.372 220.079 194.505 219.614 194.571 219.349C194.718 218.765 195.01 217.038 195.249 215.378C195.475 213.705 195.475 207.543 195.249 205.684C194.399 198.938 192.977 193.587 190.652 188.527C190.4 187.956 190.24 187.465 190.294 187.438C190.36 187.398 190.732 186.867 191.13 186.27C194.027 181.887 195.807 176.376 196.71 169.099C196.949 167.094 196.949 158.476 196.71 156.55C196.073 151.584 195.302 148.211 194.027 144.798C193.495 143.377 192.087 140.376 191.489 139.406L191.197 138.915L192.207 137.414C195.302 132.766 197.109 127.694 197.813 121.691C198.132 119.089 198.026 113.83 197.627 111.227C196.591 104.627 194.16 98.5718 190.387 93.207C188.42 90.4049 185.564 87.3373 183.067 85.3454C182.336 84.7611 181.685 84.23 181.632 84.1769C181.565 84.1238 181.645 83.3934 181.804 82.57C183.412 74.1906 183.359 63.7398 181.672 55.5728C180.21 48.455 177.553 42.798 174.126 39.5312C171.389 36.9284 168.599 35.8129 165.251 36.0254C157.573 36.4769 151.382 45.3078 148.937 59.2247C148.539 61.4689 148.193 64.0983 148.193 64.8154C148.193 65.0942 148.14 65.3199 148.074 65.3199C148.007 65.3199 147.489 65.0543 146.931 64.7224C141.006 61.2165 134.417 59.3442 128 59.3442C121.583 59.3442 114.994 61.2165 109.069 64.7224C108.511 65.0543 107.993 65.3199 107.926 65.3199C107.86 65.3199 107.807 65.0942 107.807 64.8154C107.807 64.0717 107.448 61.3628 107.063 59.2247C104.844 46.7287 99.756 38.4556 92.9939 36.3707C92.064 36.0918 89.4202 35.9059 88.4769 36.052ZM90.7355 46.8615C92.6485 48.3754 94.7741 52.7045 95.9963 57.5515C96.2222 58.4279 96.4612 59.4372 96.5277 59.8089C96.5808 60.1676 96.7269 60.9776 96.8465 61.6017C97.3647 64.417 97.6037 67.458 97.6304 71.163L97.6436 74.8149L96.7269 76.1693L95.8104 77.5371H93.6714C91.1739 77.5371 88.6895 77.8559 86.3114 78.4932C85.4612 78.7058 84.6375 78.9183 84.4782 78.9581C84.2257 79.0112 84.1859 78.9315 84.0398 77.8425C83.2559 71.9331 83.2958 65.3864 84.1594 59.9417C85.1158 53.8731 87.3478 48.3754 89.5264 46.7553C90.0446 46.3701 90.1376 46.3834 90.7355 46.8615ZM166.487 46.7685C167.802 47.7379 169.25 50.3142 170.326 53.6075C172.492 60.1941 173.103 69.2374 171.96 77.8425C171.814 78.9315 171.774 79.0112 171.522 78.9581C171.363 78.9183 170.539 78.7058 169.689 78.4932C167.311 77.8559 164.826 77.5371 162.329 77.5371H160.19L159.273 76.1693L158.356 74.8149L158.37 71.163C158.396 66.0105 158.875 61.9869 160.017 57.5116C161.226 52.7045 163.365 48.3754 165.264 46.8615C165.862 46.3834 165.955 46.3701 166.487 46.7685Z" fill="black"/>
<path d="M125.941 113.604C123.058 113.883 122.274 113.989 120.892 114.268C118.647 114.733 115.645 115.769 113.559 116.791C106.305 120.337 101.31 126.246 99.7825 133.085C99.4769 134.44 99.437 134.891 99.437 137.175C99.437 139.433 99.4769 139.924 99.7692 141.212C101.802 150.149 110.038 156.749 120.693 157.958C123.005 158.21 132.995 158.21 135.307 157.958C143.862 156.988 151.222 152.354 154.53 145.847C155.407 144.107 155.832 142.978 156.231 141.212C156.523 139.924 156.563 139.433 156.563 137.175C156.563 134.891 156.523 134.44 156.217 133.085C153.999 123.152 144.354 115.331 132.53 113.843C130.989 113.657 126.95 113.498 125.941 113.604ZM130.909 120.828C134.855 121.253 138.827 122.661 142.016 124.785C143.729 125.928 146.147 128.318 147.184 129.885C148.459 131.823 149.189 133.802 149.522 136.206C149.668 137.308 149.588 138.145 149.189 139.924C148.565 142.58 146.625 145.355 144.008 147.294C142.786 148.184 140.249 149.472 138.694 149.977C135.745 150.919 133.819 151.092 126.937 151.039C122.447 150.999 121.65 150.959 120.361 150.72C115.964 149.897 112.483 148.144 109.959 145.475C107.913 143.324 106.983 141.358 106.478 138.185C106.252 136.71 106.677 134.267 107.541 132.209C108.591 129.699 111.301 126.578 113.984 124.785C117.093 122.714 121.185 121.24 124.944 120.842C126.392 120.682 129.461 120.682 130.909 120.828Z" fill="black"/>
<path d="M122.925 130.522C121.916 131.067 121.212 132.448 121.424 133.47C121.663 134.572 122.633 135.688 124.147 136.604C124.958 137.096 125.011 137.162 125.051 137.653C125.077 137.946 124.971 138.782 124.825 139.526C124.666 140.256 124.546 141.026 124.546 141.239C124.559 141.81 125.091 142.74 125.649 143.191C126.14 143.589 126.233 143.603 127.615 143.642C128.877 143.682 129.143 143.656 129.648 143.417C130.95 142.779 131.282 141.611 130.803 139.366C130.405 137.494 130.485 137.202 131.481 136.631C132.53 136.02 133.646 134.944 133.978 134.214C134.616 132.82 134.032 131.239 132.623 130.509C132.278 130.336 131.853 130.257 131.229 130.257C130.259 130.257 129.634 130.483 128.492 131.213L127.841 131.625L127.429 131.372C125.742 130.376 125.436 130.257 124.413 130.27C123.683 130.27 123.284 130.336 122.925 130.522Z" fill="black"/>
<path d="M90.6691 115.105C88.3177 115.849 86.564 117.575 85.6607 120.032C85.2223 121.2 85.0097 123.046 85.1956 124.042C85.634 126.419 87.5869 128.584 89.8056 129.181C92.5955 129.912 94.6812 129.433 96.5278 127.601C97.6038 126.552 98.1885 125.636 98.773 124.148C99.198 123.099 99.2247 122.913 99.2247 121.426L99.2379 119.833L98.68 118.69C97.7898 116.884 96.1824 115.543 94.3225 115.052C93.2729 114.786 91.5858 114.8 90.6691 115.105Z" fill="black"/>
<path d="M161.624 115.065C159.804 115.556 158.184 116.911 157.32 118.69L156.762 119.832L156.775 121.426C156.775 122.913 156.802 123.099 157.227 124.148C157.812 125.636 158.396 126.552 159.472 127.601C161.319 129.433 163.405 129.912 166.195 129.181C167.802 128.756 169.409 127.402 170.18 125.821C170.844 124.48 171.004 123.511 170.791 121.984C170.3 118.491 168.254 115.955 165.211 115.065C164.321 114.8 162.594 114.8 161.624 115.065Z" fill="black"/>
</svg>

<svg xmlns="http://www.w3.org/2000/svg" width="256" height="256" fill="none"><rect width="256" height="256" fill="#F4F2ED" rx="60"/><path fill="#000" d="M88.477 36.052c-1.727.279-3.8 1.182-5.261 2.297-4.424 3.36-7.851 10.491-9.3 19.375-.544 3.36-.916 8.02-.916 11.58 0 4.196.491 9.561 1.196 13.266.159.823.239 1.554.172 1.607-.053.053-.704.584-1.434 1.168-2.498 1.992-5.354 5.06-7.32 7.862-3.774 5.352-6.218 11.434-7.241 18.02-.398 2.603-.505 7.862-.186 10.464.704 6.003 2.51 11.075 5.606 15.723l1.01 1.501-.292.491c-2.073 3.48-3.84 8.512-4.663 13.346-.651 3.825-.731 4.847-.731 9.973 0 5.166.066 6.188.678 9.761.73 4.276 2.218 8.804 3.879 11.818.545.983 1.873 3.028 2.032 3.134.053.027-.106.518-.358 1.089-1.913 4.183-3.547 9.747-4.225 14.435-.478 3.214-.545 4.249-.545 7.636 0 4.315.24 6.414 1.143 9.853l.133.505h11.385l-.372-.704c-2.298-4.25-2.51-12.138-.531-20.012.903-3.639 1.926-6.308 3.839-9.987l1.142-2.23v-1.368c0-1.275-.026-1.421-.438-2.258-.319-.637-.744-1.182-1.501-1.925a13.4 13.4 0 0 1-2.963-4.183c-3.268-7.092-3.906-17.622-1.607-26.599.956-3.745 2.537-7.078 4.198-8.897 1.13-1.249 1.714-2.643 1.714-4.09 0-1.501-.532-2.736-1.727-4.024-3.428-3.665-5.54-8.127-6.297-13.319-1.077-7.397.876-15.458 5.314-21.845 4.344-6.268 10.441-10.292 17.257-11.368 1.528-.252 4.384-.212 5.978.08 1.74.306 2.83.212 3.946-.319 1.381-.65 2.072-1.46 2.883-3.32.717-1.66 1.275-2.562 2.776-4.435 1.807-2.244 3.547-3.771 6.337-5.617 3.189-2.085 6.815-3.599 10.429-4.33 1.315-.265 1.926-.305 4.384-.305s3.069.04 4.384.306c5.301 1.076 10.562 3.811 14.76 7.689.903.836 3.069 3.519 3.759 4.634.266.438.731 1.368 1.023 2.058.811 1.86 1.502 2.67 2.883 3.32 1.076.518 2.205.625 3.879.346 2.644-.452 4.677-.412 7.267.12 8.822 1.779 16.5 9.043 19.901 18.776 2.963 8.539 2.126 17.476-2.285 24.302-.744 1.155-1.488 2.085-2.564 3.227-2.325 2.483-2.325 5.564-.013 8.114 3.8 4.156 6.178 14.381 5.46 23.398-.478 5.949-2.006 11.274-4.105 14.289a16 16 0 0 1-1.727 1.992c-.757.743-1.182 1.288-1.501 1.925-.412.837-.439.983-.439 2.258v1.368l1.143 2.23c1.913 3.679 2.936 6.348 3.839 9.987 1.953 7.768 1.781 15.497-.451 19.892-.186.372-.346.717-.346.757s2.538.067 5.646.067h5.633l.146-.571c.08-.306.213-.771.279-1.036.147-.584.439-2.311.678-3.971.226-1.673.226-7.835 0-9.694-.85-6.746-2.272-12.097-4.597-17.157-.252-.571-.412-1.062-.358-1.089.066-.04.438-.571.836-1.168 2.897-4.383 4.677-9.894 5.58-17.171.239-2.005.239-10.623 0-12.549-.637-4.966-1.408-8.339-2.683-11.752-.532-1.421-1.94-4.422-2.538-5.392l-.292-.491 1.01-1.501c3.095-4.648 4.902-9.72 5.606-15.723.319-2.602.213-7.861-.186-10.464-1.036-6.6-3.467-12.655-7.24-18.02-1.967-2.802-4.823-5.87-7.32-7.862a62 62 0 0 1-1.435-1.168c-.067-.053.013-.784.172-1.607 1.608-8.38 1.555-18.83-.132-26.997-1.462-7.118-4.119-12.775-7.546-16.042-2.737-2.603-5.527-3.718-8.875-3.506-7.678.452-13.869 9.283-16.314 23.2-.398 2.244-.744 4.873-.744 5.59 0 .28-.053.505-.119.505-.067 0-.585-.266-1.143-.598-5.925-3.505-12.514-5.378-18.931-5.378s-13.006 1.873-18.931 5.378c-.558.332-1.076.598-1.143.598s-.119-.226-.119-.505c0-.743-.359-3.452-.744-5.59-2.219-12.496-7.307-20.77-14.07-22.854-.929-.28-3.573-.465-4.516-.319m2.258 10.81c1.913 1.513 4.04 5.843 5.261 10.69.226.876.465 1.885.532 2.257.053.359.199 1.169.319 1.793.518 2.815.757 5.856.783 9.561l.014 3.652-.917 1.354-.917 1.368h-2.139c-2.497 0-4.982.319-7.36.956-.85.213-1.674.425-1.833.465-.252.053-.292-.026-.438-1.115-.784-5.91-.744-12.457.12-17.901.956-6.069 3.188-11.567 5.366-13.187.519-.385.612-.372 1.21.106m75.752-.093c1.315.969 2.763 3.545 3.839 6.839 2.166 6.586 2.777 15.63 1.634 24.235-.146 1.088-.186 1.168-.438 1.115-.159-.04-.983-.252-1.833-.465a28.5 28.5 0 0 0-7.36-.956h-2.139l-.917-1.368-.917-1.354.014-3.652c.026-5.153.505-9.176 1.647-13.651 1.209-4.807 3.348-9.137 5.247-10.65.598-.479.691-.492 1.223-.093"/><path fill="#000" d="M125.941 113.604c-2.883.279-3.667.385-5.049.664-2.245.465-5.247 1.501-7.333 2.523-7.254 3.546-12.249 9.455-13.776 16.294-.306 1.355-.346 1.806-.346 4.09 0 2.258.04 2.749.332 4.037 2.033 8.937 10.269 15.537 20.924 16.746 2.312.252 12.302.252 14.614 0 8.555-.97 15.915-5.604 19.223-12.111.877-1.74 1.302-2.869 1.701-4.635.292-1.288.332-1.779.332-4.037 0-2.284-.04-2.735-.346-4.09-2.218-9.933-11.863-17.754-23.687-19.242-1.541-.186-5.58-.345-6.589-.239m4.968 7.224c3.946.425 7.918 1.833 11.107 3.957 1.713 1.143 4.131 3.533 5.168 5.1 1.275 1.938 2.005 3.917 2.338 6.321.146 1.102.066 1.939-.333 3.718-.624 2.656-2.564 5.431-5.181 7.37-1.222.89-3.759 2.178-5.314 2.683-2.949.942-4.875 1.115-11.757 1.062-4.49-.04-5.287-.08-6.576-.319-4.397-.823-7.878-2.576-10.402-5.245-2.046-2.151-2.976-4.117-3.481-7.29-.226-1.475.199-3.918 1.063-5.976 1.05-2.51 3.76-5.631 6.443-7.424 3.109-2.071 7.201-3.545 10.96-3.943 1.448-.16 4.517-.16 5.965-.014"/><path fill="#000" d="M122.925 130.522c-1.009.545-1.713 1.926-1.501 2.948.239 1.102 1.209 2.218 2.723 3.134.811.492.864.558.904 1.049.026.293-.08 1.129-.226 1.873-.159.73-.279 1.5-.279 1.713.013.571.545 1.501 1.103 1.952.491.398.584.412 1.966.451 1.262.04 1.528.014 2.033-.225 1.302-.638 1.634-1.806 1.155-4.051-.398-1.872-.318-2.164.678-2.735 1.049-.611 2.165-1.687 2.497-2.417.638-1.394.054-2.975-1.355-3.705-.345-.173-.77-.252-1.394-.252-.97 0-1.595.226-2.737.956l-.651.412-.412-.253c-1.687-.996-1.993-1.115-3.016-1.102-.73 0-1.129.066-1.488.252M90.67 115.105c-2.352.744-4.106 2.47-5.01 4.927-.438 1.168-.65 3.014-.464 4.01.438 2.377 2.39 4.542 4.61 5.139 2.79.731 4.875.252 6.722-1.58 1.076-1.049 1.66-1.965 2.245-3.453.425-1.049.452-1.235.452-2.722l.013-1.593-.558-1.143c-.89-1.806-2.498-3.147-4.358-3.638-1.05-.266-2.736-.252-3.653.053m70.955-.04c-1.82.491-3.44 1.846-4.304 3.625l-.558 1.142.013 1.594c0 1.487.027 1.673.452 2.722.585 1.488 1.169 2.404 2.245 3.453 1.847 1.832 3.933 2.311 6.723 1.58 1.607-.425 3.214-1.779 3.985-3.36.664-1.341.824-2.31.611-3.837-.491-3.493-2.537-6.029-5.58-6.919-.89-.265-2.617-.265-3.587 0"/></svg>
